X: 1252
T: HYDE'S WALTZ
B: Oliver Ditson "The Boston Collection of Instrumental Music" 1910 p.125 #2
F: http://conquest.imslp.info/files/imglnks/usimg/8/8f/IMSLP175643-PMLP309456-bostoncollection00bost_bw.pdf
%: 2012 John Chambers <jc:trillian.mit.edu>
M: 3/4
L: 1/8
K: C
ef |\
g2ecG2 | g2ecG2 | g2cegc' | (c'4b2) |\
a2Bba2 | g2cag2 | f2dfGB | c4 H:|
|: B>c |\
d>cB>cd>e | d>Bg>db>g | ^f>da>fc'>f | g4g2 |\
a2Aaa2 | g2^fag2 | badf GB | c4 "^D.C.":|

%%sep 1 1 500
%%sep 1 1 500
